X:1
T:He Arose Today
T:He Arose Today
T:Ira Bishop Wilson
T:Lizzie Douglas Foulks DeArmond, 1909
T:Public Domain Courtesy of the Cyber Hymnal™
T:Public Domain Courtesy of the Cyber Hymnal™
C:Ira Bishop Wilson
Z:Public Domain
Z:Courtesy of the Cyber Hymnal™
%%score ( 1 2 ) ( 3 4 )
L:1/8
Q:1/4=87
M:4/4
K:Bb
V:1 treble 
V:2 treble 
V:3 bass 
V:4 bass 
V:1
 [DF] | [DF]>[CE] [B,D]>[DF] [DB]3 [FB] | [Gc]>[GB] [FA]>[EG] [DF]3 [Fd] | %3
w: 1.~O|heart, be glad and gay, a|bless- èd hope we know; Through|
w: 2.~Earth|robed in fair- est green blooms|forth the Lord to greet; The|
w: 3.~Oh,|shout, ye star- ry choirs, let|hal- le- lu- jahs ring; He|
 [Fc]>[Fd] [Fc]>[=EB] [FA]>[FB] [Fc]>F | [FA]2 [=EG]2 F3 [_EF] | [DF]>[CE] [B,D]>[DF] [DB]3 [FB] | %6
w: clouds of dark- ness drear the sun- shine|bright doth flow; The|hand once pierced for me has|
w: lil- ies pure and white bend low to|touch His feet; A|song of glad- ness pours from|
w: lives to die no more, our pro- phet,|priest and king; En-|throned in glo- ry bright, to|
 [Gc]>[GB] [FA]>[EG] [DF]2 F2 | [EG]>[EA] [FB]>[Ge] [Fd]2 [Ec]2 | [DB]4- [DB] z/ || %9
w: gained a vic- to- ry, My|bless- èd Sav- ior rose to-|day. *|
w: morn’s un- fold- ing doors, The|bless- èd Sav- ior rose to-|day. *|
w: Heav’n’s e- ter- nal light, The|bless- èd Sav- ior rose to-|day. *|
"^Refrain" [Fd]<[Ge] [Fd]/ | [Fd]>[Ec] [EF]7/2 [Fc]/ [Fd]>[Ec] | [DB]4- [DB]>[B,D] [DF]>[DB] | %12
w: |||
w: The Christ a-|rose to- day, the Lord di-|vine, * The tomb with|
w: |||
 A3 z G [EA]2 [EG]2 | [DF]4- [DF]>[Fd] [Ge]>[Fd] | [Fd]>[Ec] [EF]7/2 [Ec]/ [Fd]>[Ec] | %15
w: |||
w: glo- ry- light doth|shine; * Lift up your|hearts and sing to Christ, the|
w: |||
 [Ec]>[DB] [DF]4 F2 | [EG]>[EA] [FB]>[Ge] [Fd]2 [Ec]2 | [DB]4- [DB] z/ |] %18
w: |||
w: vic- tor king, The|bless- èd One who lives for|aye. *|
w: |||
V:2
 x | x8 | x8 | x15/2 F/ | x4 F3 x | x8 | x6 F2 | x8 | x11/2 || x5/2 | x8 | x8 | (E2 E2) x5 | x8 | %14
 x8 | x6 F2 | x8 | x11/2 |] %18
V:3
 [B,,B,] | [B,,B,]>[B,,B,] [B,,F,]>[B,,F,] [B,,F,]3 [D,B,] | [E,B,]>[E,B,] [E,B,]>[G,B,] B,3 B, | %3
 [A,C]>B, [A,C]>[G,C] [F,C]>[G,A,] [F,A,]>[D,A,] | [C,C]2 [C,B,]2 [F,A,]3 [F,A,] | %5
 [B,,B,]>[B,,B,] [B,,F,]>[B,,F,] [B,,F,]3 [D,B,] | [E,B,]>[E,B,] [E,B,]>[G,B,] B,2 [D,B,]2 | %7
 [E,B,]>[C,F,] [D,B,]>[E,B,] [F,B,]2 [F,A,]2 | [B,,B,]4- [B,,B,] z/ || z/ z2 | %10
 [A,,F,]2 [F,,F,]2 [A,,F,]2 [F,,F,]2 | [B,,F,]2 [F,,F,]2 [B,,F,]2 [F,,F,]2 | %12
 [C,F,]2 [F,,F,]2 [C,F,]2 [F,,F,]2 x | ([B,,F,]>B,,D,>F, B,3/2) z/ z2 | %14
 [A,,F,]2 [F,,F,]2 [A,,F,]2 [F,,F,]2 | [B,,F,]2 [F,,F,]2 [B,,F,]2 [D,B,]2 | %16
 [E,B,]>[C,F,] [D,B,]>[E,B,] [F,B,]2 [F,A,]2 | [B,,B,]4- [B,,B,] z/ |] %18
V:4
 x | x8 | x4 B,3 B, | x3/2 B,/ x6 | x8 | x8 | x4 B,2 x2 | x8 | x11/2 || x5/2 | x8 | x8 | x9 | x8 | %14
 x8 | x8 | x8 | x11/2 |] %18

